X: 1
T: String Quartet in C Major opus 64 no 1 mvt 2
C: Franz Joseph Haydn
%%abc-version 2.0
%%abcx-abcm2ps-target-version 5.9.1 (29 Sep 2008)
%%abc-creator hum2abc beta
%%abcx-conversion-date 2021/02/14 14:38:16
%%abc-copyright Copyright (c) 1994, 2000 Center for Computer Assisted Research in the Humanities
%%abc-edited-by Walter Hewlett
%%abcx-initial-encoding-date 1994/11/13
%%gracespace 0 6 6
%%humdrum-veritas 1147204320
%%humdrum-veritas-data 1179412433
%%linebreak <none>
%%barnumbers 0
L: 1/4
M: 3/4
N: Derived from op64n1-02.krn
Q: "Menuetto: Allegro ma non troppo"
%%staves [1 2 3 4]
V: 1 clef=treble
V: 2 clef=treble
V: 3 clef=alto
V: 4 clef=bass
K: C
[V:1]z x2[I:setbarnb1] |
[V:2]z x2|
[V:3]z x2|
[V:4]G,, x2|
[V:1]z .g .g |
[V:2]z .e .e |
[V:3]z3 |
[V:4]C, E, .G, |
[V:1]g3- |
[V:2]e3- |
[V:3]z3 |
[V:4]C E D//C//B,//A,// |
[V:1]g a f |
[V:2]e f d |
[V:3]z3 |
[V:4].G, G, ^G, |
[V:1]f e z |
[V:2]d c z |
[V:3]z3 |
[V:4]^G, A, .F,, |
[V:1]z .d .d |
[V:2]z .c .c |
[V:3]z .A .F |
[V:4]A,, ^C, D, |
[V:1]d3 |
[V:2]c3- |
[V:3]D E ^F |
[V:4]F, =G, A, |
[V:1]d/e/ f/.a/ .g/.B/ |
[V:2]c2 B |
[V:3]G2 G//=F//E//F// |
[V:4]G,3 |
[V:1].c z |
[V:2].c z |
[V:3].E z |
[V:4].C, .C |
[V:1].B/.c/ x2[I:setbarnb9] |
[V:2]z x2|
[V:3]z x2|
[V:4]z x2|
[V:1]d/e/ f/.a/ .g/.B/ |
[V:2]B3 |
[V:3]G3- |
[V:4]F3 |
[V:1]c/d/ e/.a/ .g/.c/ |
[V:2]c3 |
[V:3]G3- |
[V:4]E3 |
[V:1]d/e/ f/.a/ .g/.d/ |
[V:2]d3 |
[V:3]G3 |
[V:4]B,3 |
[V:1].e/.^f/ .g/.a/ .b/.c'/ |
[V:2]e d c |
[V:3]G2 A |
[V:4]C B, A, |
[V:1]d'2 c'/b/ |
[V:2].B/.c/ .d/.e/ .^f/.g/ |
[V:3]B2 A/G/ |
[V:4].G,/.A,/ .B,/.C/ .D/.E/ |
[V:1].a .a .a |
[V:2]g ^f e |
[V:3]E ^F G |
[V:4]C2 ^C |
[V:1]a b ^f |
[V:2]d2 c |
[V:3]G ^F A |
[V:4]D2 D, |
[V:1]g z g |
[V:2]B z .B, |
[V:3]G z .G, |
[V:4].G, .G,, z |
[V:1]B z g |
[V:2]D =F .B, |
[V:3]B, D .G, |
[V:4]z3 |
[V:1]c z .g |
[V:2]E G .G |
[V:3]C E z |
[V:4]z3 |
[V:1]^f/g/ a/g/ =f/e/ |
[V:2]^F/G/ A/G/ =F/E/ |
[V:3]z .D .C |
[V:4]z .B, .C |
[V:1]d z .G |
[V:2]D z .G, |
[V:3].B, z z |
[V:4].G, .G,, z |
[V:1]c e .g |
[V:2]C E .G |
[V:3]z z .E |
[V:4]z z .C |
[V:1].c' .e' d'//c'//b//a// |
[V:2].c .e d//c//B//A// |
[V:3].E .E .E |
[V:4].C .C .C |
[V:1].g .g .!sfz!^g |
[V:2].G .G .!sfz!F |
[V:3].D .D .!sfz!D |
[V:4].B, .B, .!sfz!B, |
[V:1]^g a .!sfz!^f |
[V:2]F E .!sfz!_E |
[V:3]D ^C .!sfz!=C |
[V:4]A,2 .!sfz!A, |
[V:1]^f =g .!sfz!e |
[V:2]_E D .!sfz!C |
[V:3]C B, .!sfz!_B, |
[V:4]G,2 .!sfz!G, |
[V:1]e =f .a |
[V:2]C2 z |
[V:3]_B, A, z |
[V:4]F,2 z |
[V:1]a e .f |
[V:2]z z .A |
[V:3]z3 |
[V:4]z ^C, D, |
[V:1]f ^c .d |
[V:2]A G F |
[V:3]z A, A,/=B,/ |
[V:4]D, E, F, |
[V:1]=c3 |
[V:2]E3 |
[V:3]C3 |
[V:4]G,3- |
[V:1].B/.c/ .d/.e/ .f/.g/ |
[V:2]F E D |
[V:3]D C B, |
[V:4]G,3 |
[V:1]f3 |
[V:2]D3 |
[V:3]B,3 |
[V:4]^G,3 |
[V:1]e z .e' |
[V:2]C z .e |
[V:3]C z z |
[V:4]A, z z |
[V:1]e' b .c' |
[V:2]e B .c |
[V:3]z z .G |
[V:4]z z .E |
[V:1]c' ^g .a |
[V:2]c ^G .A |
[V:3]G D .E |
[V:4]E B, .C |
[V:1]e f .^c |
[V:2]E F .^C |
[V:3]B, C .G, |
[V:4]^G, A, .E, |
[V:1]d e f |
[V:2]D E F |
[V:3]A, G, F, |
[V:4]F, E, D, |
[V:1]=c3 |
[V:2]E3 |
[V:3]G,3 |
[V:4]=G,3 |
[V:1]F3- |
[V:2]D3- |
[V:3]B,3 |
[V:4]^G,,3 |
[V:1]F E F |
[V:2]D ^C D |
[V:3]A,3 |
[V:4]A,,3 |
[V:1]^F3 |
[V:2]=C3- |
[V:3]_E3 |
[V:4]_A,,3 |
[V:1]G2 .B, |
[V:2]C2 E/D/ |
[V:3]=E2 G/F/ |
[V:4]G,,2 .G,, |
[V:1].C z ^f |
[V:2].C z _e |
[V:3].E z c/A/ |
[V:4].C,, z z |
[V:1]g z [BD] |
[V:2]=e z [FG,] |
[V:3]G z .G, |
[V:4]z z [G,G,,] |
[V:1][cE] z :|]
[V:2][EG,] z :|]
[V:3].C z :|]
[V:4][C,C,,] z :|]
[V:1][K:Eb] [M:3/4]z x2[I:setbarnb45] |
[V:2][K:Eb] [M:3/4]z x2|
[V:3][K:Eb] [M:3/4]G, x2|
[V:4][K:Eb] [M:3/4]z x2|
[V:1]z3 |
[V:2]z3 |
[V:3]C E .G |
[V:4].C, .C, .C, |
[V:1]z z .g |
[V:2]z z .=B, |
[V:3]A G z |
[V:4]=B,,2 z |
[V:1].g .g .g |
[V:2]D F .G |
[V:3]z3 |
[V:4]z3 |
[V:1]f e z |
[V:2]=B c z |
[V:3]z z E, |
[V:4]z3 |
[V:1]z3 |
[V:2]z3 |
[V:3]A, C .E |
[V:4].A,, .A,, .A,, |
[V:1]z z .E |
[V:2]z3 |
[V:3]F E z |
[V:4]G,,2 z |
[V:1]A c .e |
[V:2]E3- |
[V:3]C3 |
[V:4]A,3 |
[V:1]f e .E |
[V:2]E3 |
[V:3]B,3- |
[V:4]G,3 |
[V:1]B A .B, |
[V:2]D3 |
[V:3]B,3 |
[V:4]F,3 |
[V:1]A G .F |
[V:2]F E .C |
[V:3]B,2 .A, |
[V:4]D, E, .A,, |
[V:1]E D .F |
[V:2]B, A,2 |
[V:3]G, F, .D, |
[V:4]B,, _C, .B,, |
[V:1]E z .B |
[V:2]G, z .B, |
[V:3]E, z .G, |
[V:4].E, .E,, .E,, |
[V:1]=A B .=B |
[V:2]=A, B, =B, |
[V:3]^F, G, .G, |
[V:4]E,,3- |
[V:1]d c .f/.e/ |
[V:2]D C .C |
[V:3]G, A, .A, |
[V:4]E,,3- |
[V:1].d/.c/ .B/.A/ .G/.F/ |
[V:2]D3 |
[V:3]A,3 |
[V:4]E,,3- |
[V:1]E z |
[V:2]E z |
[V:3]G, z |
[V:4]E,, z |
[V:1]z x2[I:setbarnb61] |
[V:2]z x2|
[V:3]z x2|
[V:4].B, x2|
[V:1]z z A |
[V:2]z z F- |
[V:3]z3 |
[V:4]=A, B, =B, |
[V:1]G2 c/_G/ |
[V:2]F =E _E- |
[V:3]z3 |
[V:4]D C .=A, |
[V:1]F2 B/F/ |
[V:2]E D _D- |
[V:3]z3 |
[V:4]C B, .G, |
[V:1].E .E A/E/ |
[V:2]D C C |
[V:3]z3 |
[V:4]B, A, .F, |
[V:1]D2 E |
[V:2]C3 |
[V:3]z3 |
[V:4]A, G, .^F, |
[V:1]D G ^F |
[V:2]=B, =D C |
[V:3]z =B, =A, |
[V:4]G,3- |
[V:1]=A G .=B |
[V:2]E D .G |
[V:3]C =B, .D |
[V:4]G,3- |
[V:1]c =B .G |
[V:2]^F G z |
[V:3]E D z |
[V:4]G, G,, z |
[V:1]c e .g |
[V:2].C .C .C |
[V:3]z3 |
[V:4]z3 |
[V:1]a g .d' |
[V:2]=B,2 .f |
[V:3]z z .G |
[V:4]z3 |
[V:1].d' .d' .d' |
[V:2].f .f .f |
[V:3]A =B .d |
[V:4]z3 |
[V:1]=b c' z |
[V:2]a g z |
[V:3]f e z |
[V:4]z z .A,, |
[V:1]^f3 |
[V:2]c3 |
[V:3]A,3 |
[V:4]C, E, .^F, |
[V:1]=f3 |
[V:2]=B3 |
[V:3]G,3 |
[V:4]G, =B, D |
[V:1].e .E !trill!D |
[V:2].c .C .=B, |
[V:3].C .G, .F, |
[V:4].C .G, .G,, |
[V:1].C z .G |
[V:2].C z .=E |
[V:3]E, z z |
[V:4]C,3- |
[V:1]A G .c |
[V:2]F =E .C |
[V:3]z z =E, |
[V:4]C,3- |
[V:1]B A .G |
[V:2]_D C .C |
[V:3]F,2 G, |
[V:4]C,3- |
[V:1]G F .E |
[V:2]=B,2 C |
[V:3]A,2 G, |
[V:4]C,3 |
[V:1]=D/E/ =E/F/ ^F/G/ |
[V:2]A, z z |
[V:3]F, z z |
[V:4]F,, z z |
[V:1]A G .=B, |
[V:2]z z .=D |
[V:3]z z .F, |
[V:4]z z .G,, |
[V:1].C z :|]
[V:2].C z :|]
[V:3].E, z :|]
[V:4].C,, z :|]

